!!!SOCIAL_FUNCTION:	divorce songs
!!!PDT:	1943
!!!OTL: No_83_Divorce_Dance_Song_(a).krn
!!!REG: British Columbia
**kern
*staff1
=1-
*clefG2
*k[f#c#g#d#a#]
*M2/4
4.r
8f#/
=2!|:
8.g#/L
16g#/Jk
8g#/L
8f#/J
=3
4g#/
4b\
=4
8g#/L
8f#/J
8.d#/L
16f#/Jk
=5||
*M3/4
12g#/L
12g#/
12f#/J
8.g#/L
16f#/Jk
12g#/L
12f#/
12g#/J
=6||
*M2/4
4f#/
4d#/
=7
2d#/
=8
4f#/
4r
=9
12g#/L
12g#/
12g#/J
16g#/LK
8f#/
16d#/Jk
=10
4d#/
4f#/
=11
4d#/
[4d#/
=12
4d#/]
4r
=13
12B/L
12B/
12B/J
8.B/L
16B/Jk
=14||
*M3/4
4B/
4B/
4B/
=15
2B/
4r
=16
*M2/4
8e/L
8e/J
8.e/L
16g#/Jk
==:|!
*-
